(G-CODE GENERATED BY FLATCAM v8.991 - www.flatcam.org - Version Date: 2019/12/27)

(Name: drill)
(Type: G-code from Excellon)
(Units: MM)

(Created on Wednesday, 19 February 2020 at 17:48)

(Feedrate: 60.0 mm/min)
(Feedrate rapids 1500.0 mm/min)

(Z_Cut: -2.0 mm)
(Z_Move: 5.0 mm)
(Z Toolchange: 15.0 mm)
(X,Y Toolchange: 0.0000, 0.0000 mm)
(Z Start: None mm)
(Z End: 20.0 mm)
(Steps per circle: 64)
(Preprocessor Excellon: default)

(X range:    9.9000 ...   88.9000  mm)
(Y range:    9.0750 ...   52.9000  mm)

(Spindle Speed: 120.0 RPM)
G21
G90
G94




G01 F60.00
G00 Z5.0000

M03 S120.0
G00 X77.7500 Y36.4350
G01 Z-2.0000
G01 Z0
G00 Z5.0000
G00 X77.7500 Y33.8950
G01 Z-2.0000
G01 Z0
G00 Z5.0000
G00 X69.1350 Y32.5500
G01 Z-2.0000
G01 Z0
G00 Z5.0000
G00 X46.2750 Y32.5500
G01 Z-2.0000
G01 Z0
G00 Z5.0000
G00 X36.2250 Y32.5500
G01 Z-2.0000
G01 Z0
G00 Z5.0000
G00 X29.5500 Y32.6500
G01 Z-2.0000
G01 Z0
G00 Z5.0000
G00 X25.7500 Y48.8500
G01 Z-2.0000
G01 Z0
G00 Z5.0000
G00 X10.5000 Y52.5000
G01 Z-2.0000
G01 Z0
G00 Z5.0000
G00 X10.5000 Y47.5000
G01 Z-2.0000
G01 Z0
G00 Z5.0000
G00 X10.6250 Y37.8000
G01 Z-2.0000
G01 Z0
G00 Z5.0000
G00 X10.6250 Y32.8000
G01 Z-2.0000
G01 Z0
G00 Z5.0000
G00 X22.1250 Y32.6000
G01 Z-2.0000
G01 Z0
G00 Z5.0000
G00 X22.1250 Y19.9000
G01 Z-2.0000
G01 Z0
G00 Z5.0000
G00 X10.3000 Y9.5250
G01 Z-2.0000
G01 Z0
G00 Z5.0000
G00 X15.3000 Y9.5250
G01 Z-2.0000
G01 Z0
G00 Z5.0000
G00 X20.2000 Y9.4750
G01 Z-2.0000
G01 Z0
G00 Z5.0000
G00 X25.2000 Y9.4750
G01 Z-2.0000
G01 Z0
G00 Z5.0000
G00 X30.2250 Y9.4750
G01 Z-2.0000
G01 Z0
G00 Z5.0000
G00 X35.2250 Y9.4750
G01 Z-2.0000
G01 Z0
G00 Z5.0000
G00 X29.5500 Y19.9500
G01 Z-2.0000
G01 Z0
G00 Z5.0000
G00 X36.2250 Y19.8500
G01 Z-2.0000
G01 Z0
G00 Z5.0000
G00 X46.2750 Y14.7700
G01 Z-2.0000
G01 Z0
G00 Z5.0000
G00 X46.2750 Y17.3100
G01 Z-2.0000
G01 Z0
G00 Z5.0000
G00 X46.2750 Y19.8500
G01 Z-2.0000
G01 Z0
G00 Z5.0000
G00 X46.2750 Y22.3900
G01 Z-2.0000
G01 Z0
G00 Z5.0000
G00 X46.2750 Y24.9300
G01 Z-2.0000
G01 Z0
G00 Z5.0000
G00 X46.2750 Y27.4700
G01 Z-2.0000
G01 Z0
G00 Z5.0000
G00 X46.2750 Y30.0100
G01 Z-2.0000
G01 Z0
G00 Z5.0000
G00 X69.1350 Y30.0100
G01 Z-2.0000
G01 Z0
G00 Z5.0000
G00 X69.1350 Y27.4700
G01 Z-2.0000
G01 Z0
G00 Z5.0000
G00 X69.1350 Y24.9300
G01 Z-2.0000
G01 Z0
G00 Z5.0000
G00 X69.1350 Y22.3900
G01 Z-2.0000
G01 Z0
G00 Z5.0000
G00 X69.1350 Y19.8500
G01 Z-2.0000
G01 Z0
G00 Z5.0000
G00 X69.1350 Y17.3100
G01 Z-2.0000
G01 Z0
G00 Z5.0000
G00 X69.1350 Y14.7700
G01 Z-2.0000
G01 Z0
G00 Z5.0000
G00 X78.2250 Y10.1750
G01 Z-2.0000
G01 Z0
G00 Z5.0000
G00 X83.2250 Y10.1750
G01 Z-2.0000
G01 Z0
G00 Z5.0000
G00 X88.2250 Y10.1750
G01 Z-2.0000
G01 Z0
G00 Z5.0000
G00 X88.5000 Y32.6250
G01 Z-2.0000
G01 Z0
G00 Z5.0000
G00 X88.5000 Y37.6250
G01 Z-2.0000
G01 Z0
G00 Z5.0000
G00 X81.6300 Y48.8500
G01 Z-2.0000
G01 Z0
G00 Z5.0000
M03 S120.0
G00 X77.7500 Y38.9750
G01 Z-2.0000
G01 Z0
G00 Z5.0000
M05
G00 Z20.00
G00 X0.0 Y0.0

