(G-CODE GENERATED BY FLATCAM v8.991 - www.flatcam.org - Version Date: 2019/12/27)

(Name: edge)
(Type: G-code from Geometry)
(Units: MM)

(Created on Wednesday, 19 February 2020 at 17:46)

(TOOL DIAMETER: 0.2 mm)
(Feedrate: 40.0 mm/min)
(Feedrate_Z: 40.0 mm/min)
(Feedrate rapids 1500.0 mm/min)

(Z_Cut: -1.0 mm)
(Z_Move: 5.0 mm)
(Z Toolchange: 15.0 mm)
(X,Y Toolchange: 0.0000, 0.0000 mm)
(Z Start: None mm)
(Z End: 20.0 mm)
(Steps per circle: 64)
(Preprocessor Geometry: default)

(X range:   -0.2550 ...  101.0050  mm)
(Y range:   -0.2300 ...   62.4550  mm)

(Spindle Speed: 60 RPM)
G21
G90
G94




G01 F40.00
G00 Z5.0000

M03 S60
G00 X-0.2550 Y62.1500
G01 F40.00
G01 Z-1.0000
G01 F40.00
G01 X-0.2550 Y0.0750
G01 X-0.2546 Y0.0588
G01 X-0.2519 Y0.0315
G01 X-0.2455 Y-0.0003
G01 X-0.2376 Y-0.0266
G01 X-0.2262 Y-0.0543
G01 X-0.2122 Y-0.0807
G01 X-0.1942 Y-0.1077
G01 X-0.1752 Y-0.1307
G01 X-0.1557 Y-0.1502
G01 X-0.1327 Y-0.1692
G01 X-0.1078 Y-0.1860
G01 X-0.0793 Y-0.2012
G01 X-0.0516 Y-0.2126
G01 X-0.0253 Y-0.2205
G01 X0.0065 Y-0.2269
G01 X0.0338 Y-0.2296
G01 X0.0500 Y-0.2300
G01 X100.7000 Y-0.2300
G01 X100.7162 Y-0.2296
G01 X100.7435 Y-0.2269
G01 X100.7753 Y-0.2205
G01 X100.8039 Y-0.2117
G01 X100.8315 Y-0.2002
G01 X100.8557 Y-0.1872
G01 X100.8807 Y-0.1707
G01 X100.9057 Y-0.1502
G01 X100.9252 Y-0.1307
G01 X100.9442 Y-0.1077
G01 X100.9610 Y-0.0828
G01 X100.9762 Y-0.0543
G01 X100.9876 Y-0.0266
G01 X100.9955 Y-0.0003
G01 X101.0019 Y0.0315
G01 X101.0046 Y0.0588
G01 X101.0050 Y0.0750
G01 X101.0050 Y62.1500
G01 X101.0046 Y62.1662
G01 X101.0019 Y62.1935
G01 X100.9955 Y62.2253
G01 X100.9867 Y62.2539
G01 X100.9752 Y62.2815
G01 X100.9622 Y62.3057
G01 X100.9457 Y62.3307
G01 X100.9252 Y62.3557
G01 X100.9039 Y62.3768
G01 X100.8827 Y62.3942
G01 X100.8578 Y62.4110
G01 X100.8293 Y62.4262
G01 X100.8016 Y62.4376
G01 X100.7753 Y62.4455
G01 X100.7435 Y62.4519
G01 X100.7162 Y62.4546
G01 X100.7000 Y62.4550
G01 X0.0500 Y62.4550
G01 X0.0338 Y62.4546
G01 X0.0040 Y62.4515
G01 X-0.0253 Y62.4455
G01 X-0.0539 Y62.4367
G01 X-0.0815 Y62.4252
G01 X-0.1078 Y62.4110
G01 X-0.1327 Y62.3942
G01 X-0.1557 Y62.3752
G01 X-0.1768 Y62.3539
G01 X-0.1957 Y62.3307
G01 X-0.2122 Y62.3057
G01 X-0.2262 Y62.2793
G01 X-0.2376 Y62.2516
G01 X-0.2461 Y62.2229
G01 X-0.2519 Y62.1935
G01 X-0.2546 Y62.1662
G01 X-0.2550 Y62.1500
G00 Z5.0000
G00 X100.3950 Y0.3800
G01 F40.00
G01 Z-1.0000
G01 F40.00
G01 X100.3950 Y61.8450
G01 X0.3550 Y61.8450
G01 X0.3550 Y0.3800
G01 X100.3950 Y0.3800
G00 Z5.0000
M05
G00 Z5.0000
G00 Z20.00
G00 X0.0 Y0.0

