(G-CODE GENERATED BY FLATCAM v8.991 - www.flatcam.org - Version Date: 2019/12/27)

(Name: traces)
(Type: G-code from Geometry)
(Units: MM)

(Created on Wednesday, 19 February 2020 at 17:44)

(TOOL DIAMETER: 0.2 mm)
(Feedrate: 40.0 mm/min)
(Feedrate_Z: 40.0 mm/min)
(Feedrate rapids 1500.0 mm/min)

(Z_Cut: -0.3 mm)
(Z_Move: 4.0 mm)
(Z Toolchange: 15.0 mm)
(X,Y Toolchange: 0.0000, 0.0000 mm)
(Z Start: None mm)
(Z End: 20.0 mm)
(Steps per circle: 64)
(Preprocessor Geometry: default)

(X range:    4.3995 ...   95.9255  mm)
(Y range:    4.8745 ...   58.4255  mm)

(Spindle Speed: 100 RPM)
G21
G90
G94




G01 F40.00
G00 Z4.0000

M03 S100
G00 X9.0000 Y8.1250
G01 F40.00
G01 Z-0.3000
G01 F40.00
G01 X9.1245 Y8.1250
G01 X9.1245 Y6.9750
G01 X9.1298 Y6.8647
G01 X9.1307 Y6.8549
G01 X9.1462 Y6.7505
G01 X9.1481 Y6.7409
G01 X9.1738 Y6.6385
G01 X9.1766 Y6.6291
G01 X9.2122 Y6.5297
G01 X9.2159 Y6.5207
G01 X9.2611 Y6.4252
G01 X9.2657 Y6.4166
G01 X9.3200 Y6.3261
G01 X9.3254 Y6.3179
G01 X9.3883 Y6.2331
G01 X9.3945 Y6.2255
G01 X9.4688 Y6.1438
G01 X10.3938 Y5.2188
G01 X10.4755 Y5.1445
G01 X10.4831 Y5.1383
G01 X10.5679 Y5.0754
G01 X10.5761 Y5.0700
G01 X10.6666 Y5.0157
G01 X10.6752 Y5.0111
G01 X10.7707 Y4.9659
G01 X10.7797 Y4.9622
G01 X10.8791 Y4.9266
G01 X10.8885 Y4.9238
G01 X10.9909 Y4.8981
G01 X11.0005 Y4.8962
G01 X11.1049 Y4.8807
G01 X11.1147 Y4.8798
G01 X11.2250 Y4.8745
G01 X19.3299 Y4.8746
G01 X19.4353 Y4.8798
G01 X19.4451 Y4.8807
G01 X19.5495 Y4.8962
G01 X19.5591 Y4.8981
G01 X19.6615 Y4.9238
G01 X19.6709 Y4.9266
G01 X19.7703 Y4.9622
G01 X19.7793 Y4.9659
G01 X19.8748 Y5.0111
G01 X19.8834 Y5.0157
G01 X19.9739 Y5.0700
G01 X19.9821 Y5.0754
G01 X20.0669 Y5.1383
G01 X20.0745 Y5.1445
G01 X20.1527 Y5.2154
G01 X20.2027 Y5.2652
G01 X20.2255 Y5.2445
G01 X20.2331 Y5.2383
G01 X20.3179 Y5.1754
G01 X20.3261 Y5.1700
G01 X20.4166 Y5.1157
G01 X20.4252 Y5.1111
G01 X20.5207 Y5.0659
G01 X20.5297 Y5.0622
G01 X20.6291 Y5.0266
G01 X20.6385 Y5.0238
G01 X20.7409 Y4.9981
G01 X20.7505 Y4.9962
G01 X20.8549 Y4.9807
G01 X20.8647 Y4.9798
G01 X20.9750 Y4.9745
G01 X63.7049 Y4.9746
G01 X63.8103 Y4.9798
G01 X63.8201 Y4.9807
G01 X63.9245 Y4.9962
G01 X63.9341 Y4.9981
G01 X64.0365 Y5.0238
G01 X64.0459 Y5.0266
G01 X64.1453 Y5.0622
G01 X64.1543 Y5.0659
G01 X64.2498 Y5.1111
G01 X64.2584 Y5.1157
G01 X64.3489 Y5.1700
G01 X64.3571 Y5.1754
G01 X64.4419 Y5.2383
G01 X64.4495 Y5.2445
G01 X64.5312 Y5.3188
G01 X68.2119 Y8.9995
G01 X76.1221 Y8.9995
G01 X76.1370 Y8.9962
G01 X76.2414 Y8.9807
G01 X76.2512 Y8.9798
G01 X76.3566 Y8.9746
G01 X76.3664 Y8.9746
G01 X76.4719 Y8.9798
G01 X76.4816 Y8.9807
G01 X76.5860 Y8.9962
G01 X76.6010 Y8.9995
G01 X77.4085 Y8.9995
G01 X77.4432 Y8.9738
G01 X77.4513 Y8.9683
G01 X77.5608 Y8.9027
G01 X77.5694 Y8.8981
G01 X77.6848 Y8.8436
G01 X77.6938 Y8.8398
G01 X77.8139 Y8.7968
G01 X77.8233 Y8.7940
G01 X77.9471 Y8.7630
G01 X77.9567 Y8.7611
G01 X78.0829 Y8.7423
G01 X78.0927 Y8.7414
G01 X78.2201 Y8.7351
G01 X78.2299 Y8.7351
G01 X78.3573 Y8.7414
G01 X78.3671 Y8.7423
G01 X78.4933 Y8.7611
G01 X78.5029 Y8.7630
G01 X78.6267 Y8.7940
G01 X78.6361 Y8.7968
G01 X78.7562 Y8.8398
G01 X78.7652 Y8.8436
G01 X78.8806 Y8.8981
G01 X78.8892 Y8.9027
G01 X78.9987 Y8.9683
G01 X79.0068 Y8.9738
G01 X79.1093 Y9.0498
G01 X79.1169 Y9.0560
G01 X79.2114 Y9.1417
G01 X79.2183 Y9.1486
G01 X79.3040 Y9.2431
G01 X79.3102 Y9.2507
G01 X79.3862 Y9.3532
G01 X79.3917 Y9.3613
G01 X79.4573 Y9.4708
G01 X79.4619 Y9.4794
G01 X79.5164 Y9.5948
G01 X79.5202 Y9.6038
G01 X79.5632 Y9.7239
G01 X79.5660 Y9.7333
G01 X79.5970 Y9.8571
G01 X79.5989 Y9.8667
G01 X79.6177 Y9.9929
G01 X79.6186 Y10.0027
G01 X79.6249 Y10.1301
G01 X79.6249 Y10.2199
G01 X79.6186 Y10.3473
G01 X79.6177 Y10.3571
G01 X79.5989 Y10.4833
G01 X79.5970 Y10.4929
G01 X79.5660 Y10.6167
G01 X79.5632 Y10.6261
G01 X79.5202 Y10.7462
G01 X79.5164 Y10.7552
G01 X79.4619 Y10.8706
G01 X79.4573 Y10.8792
G01 X79.3917 Y10.9887
G01 X79.3862 Y10.9968
G01 X79.3102 Y11.0993
G01 X79.3040 Y11.1069
G01 X79.2183 Y11.2014
G01 X79.2114 Y11.2083
G01 X79.1169 Y11.2940
G01 X79.1093 Y11.3002
G01 X79.0068 Y11.3762
G01 X78.9987 Y11.3817
G01 X78.8892 Y11.4473
G01 X78.8806 Y11.4519
G01 X78.7652 Y11.5064
G01 X78.7562 Y11.5102
G01 X78.6361 Y11.5532
G01 X78.6267 Y11.5560
G01 X78.5029 Y11.5870
G01 X78.4933 Y11.5889
G01 X78.3671 Y11.6077
G01 X78.3573 Y11.6086
G01 X78.2299 Y11.6149
G01 X78.2201 Y11.6149
G01 X78.0927 Y11.6086
G01 X78.0829 Y11.6077
G01 X77.9567 Y11.5889
G01 X77.9471 Y11.5870
G01 X77.8233 Y11.5560
G01 X77.8139 Y11.5532
G01 X77.6938 Y11.5102
G01 X77.6848 Y11.5064
G01 X77.5694 Y11.4519
G01 X77.5608 Y11.4473
G01 X77.4513 Y11.3817
G01 X77.4432 Y11.3762
G01 X77.4085 Y11.3505
G01 X68.2119 Y11.3505
G01 X66.7005 Y12.8619
G01 X66.7005 Y30.7531
G01 X67.3219 Y31.3745
G01 X69.1399 Y31.3746
G01 X69.2453 Y31.3798
G01 X69.2551 Y31.3807
G01 X69.3595 Y31.3962
G01 X69.3766 Y31.4000
G01 X69.5350 Y31.4000
G01 X69.6428 Y31.4052
G01 X69.6526 Y31.4061
G01 X69.7545 Y31.4213
G01 X69.7641 Y31.4232
G01 X69.8641 Y31.4482
G01 X69.8735 Y31.4511
G01 X69.9705 Y31.4858
G01 X69.9796 Y31.4895
G01 X70.0727 Y31.5336
G01 X70.0814 Y31.5382
G01 X70.1698 Y31.5912
G01 X70.1779 Y31.5966
G01 X70.2607 Y31.6580
G01 X70.2683 Y31.6642
G01 X70.3446 Y31.7334
G01 X70.3516 Y31.7404
G01 X70.4208 Y31.8167
G01 X70.4270 Y31.8243
G01 X70.4884 Y31.9071
G01 X70.4938 Y31.9152
G01 X70.5468 Y32.0036
G01 X70.5514 Y32.0123
G01 X70.5955 Y32.1054
G01 X70.5992 Y32.1145
G01 X70.6339 Y32.2115
G01 X70.6368 Y32.2209
G01 X70.6618 Y32.3209
G01 X70.6637 Y32.3305
G01 X70.6789 Y32.4324
G01 X70.6798 Y32.4422
G01 X70.6849 Y32.5451
G01 X70.6849 Y32.5549
G01 X70.6798 Y32.6578
G01 X70.6789 Y32.6676
G01 X70.6637 Y32.7695
G01 X70.6618 Y32.7791
G01 X70.6368 Y32.8791
G01 X70.6339 Y32.8885
G01 X70.5992 Y32.9855
G01 X70.5955 Y32.9946
G01 X70.5514 Y33.0877
G01 X70.5468 Y33.0964
G01 X70.4938 Y33.1848
G01 X70.4884 Y33.1929
G01 X70.4270 Y33.2757
G01 X70.4208 Y33.2833
G01 X70.3516 Y33.3596
G01 X70.3446 Y33.3666
G01 X70.2683 Y33.4358
G01 X70.2607 Y33.4420
G01 X70.1779 Y33.5034
G01 X70.1698 Y33.5088
G01 X70.0814 Y33.5618
G01 X70.0727 Y33.5664
G01 X69.9796 Y33.6105
G01 X69.9705 Y33.6142
G01 X69.8735 Y33.6489
G01 X69.8641 Y33.6518
G01 X69.7641 Y33.6768
G01 X69.7545 Y33.6787
G01 X69.6526 Y33.6939
G01 X69.6428 Y33.6948
G01 X69.5350 Y33.7000
G01 X69.3766 Y33.7000
G01 X69.3595 Y33.7038
G01 X69.2551 Y33.7193
G01 X69.2453 Y33.7202
G01 X69.1399 Y33.7254
G01 X66.8301 Y33.7254
G01 X66.7247 Y33.7202
G01 X66.7149 Y33.7193
G01 X66.6105 Y33.7038
G01 X66.6009 Y33.7019
G01 X66.4985 Y33.6762
G01 X66.4891 Y33.6734
G01 X66.3897 Y33.6378
G01 X66.3807 Y33.6341
G01 X66.2852 Y33.5889
G01 X66.2766 Y33.5843
G01 X66.1861 Y33.5300
G01 X66.1779 Y33.5246
G01 X66.0931 Y33.4617
G01 X66.0855 Y33.4555
G01 X66.0038 Y33.3812
G01 X64.6938 Y32.0712
G01 X64.6195 Y31.9895
G01 X64.6133 Y31.9819
G01 X64.5504 Y31.8971
G01 X64.5450 Y31.8889
G01 X64.4907 Y31.7984
G01 X64.4861 Y31.7898
G01 X64.4409 Y31.6943
G01 X64.4372 Y31.6853
G01 X64.4016 Y31.5859
G01 X64.3988 Y31.5765
G01 X64.3731 Y31.4741
G01 X64.3712 Y31.4645
G01 X64.3557 Y31.3601
G01 X64.3548 Y31.3503
G01 X64.3496 Y31.2449
G01 X64.3495 Y12.3750
G01 X64.3548 Y12.2647
G01 X64.3557 Y12.2549
G01 X64.3712 Y12.1505
G01 X64.3731 Y12.1409
G01 X64.3988 Y12.0385
G01 X64.4016 Y12.0291
G01 X64.4372 Y11.9297
G01 X64.4409 Y11.9207
G01 X64.4861 Y11.8252
G01 X64.4907 Y11.8166
G01 X64.5450 Y11.7261
G01 X64.5504 Y11.7179
G01 X64.6133 Y11.6331
G01 X64.6195 Y11.6255
G01 X64.6938 Y11.5438
G01 X66.0625 Y10.1750
G01 X63.2131 Y7.3255
G01 X31.4005 Y7.3255
G01 X31.4005 Y8.6761
G01 X31.4573 Y8.7708
G01 X31.4619 Y8.7794
G01 X31.5164 Y8.8948
G01 X31.5202 Y8.9038
G01 X31.5632 Y9.0239
G01 X31.5660 Y9.0333
G01 X31.5970 Y9.1571
G01 X31.5989 Y9.1667
G01 X31.6177 Y9.2929
G01 X31.6186 Y9.3027
G01 X31.6249 Y9.4301
G01 X31.6250 Y9.5150
G01 X31.6186 Y9.6473
G01 X31.6177 Y9.6571
G01 X31.5989 Y9.7833
G01 X31.5970 Y9.7929
G01 X31.5660 Y9.9167
G01 X31.5632 Y9.9261
G01 X31.5202 Y10.0462
G01 X31.5164 Y10.0552
G01 X31.4619 Y10.1706
G01 X31.4573 Y10.1792
G01 X31.3917 Y10.2887
G01 X31.3862 Y10.2968
G01 X31.3102 Y10.3993
G01 X31.3040 Y10.4069
G01 X31.2183 Y10.5014
G01 X31.2114 Y10.5083
G01 X31.1169 Y10.5940
G01 X31.1093 Y10.6002
G01 X31.0068 Y10.6762
G01 X30.9987 Y10.6817
G01 X30.8892 Y10.7473
G01 X30.8806 Y10.7519
G01 X30.7652 Y10.8064
G01 X30.7562 Y10.8102
G01 X30.6361 Y10.8532
G01 X30.6267 Y10.8560
G01 X30.5029 Y10.8870
G01 X30.4933 Y10.8889
G01 X30.3671 Y10.9077
G01 X30.3573 Y10.9086
G01 X30.2299 Y10.9149
G01 X30.2201 Y10.9149
G01 X30.0927 Y10.9086
G01 X30.0829 Y10.9077
G01 X29.9567 Y10.8889
G01 X29.9471 Y10.8870
G01 X29.8233 Y10.8560
G01 X29.8139 Y10.8532
G01 X29.6938 Y10.8102
G01 X29.6848 Y10.8064
G01 X29.5694 Y10.7519
G01 X29.5608 Y10.7473
G01 X29.4513 Y10.6817
G01 X29.4432 Y10.6762
G01 X29.3407 Y10.6002
G01 X29.3331 Y10.5940
G01 X29.2386 Y10.5083
G01 X29.2317 Y10.5014
G01 X29.1460 Y10.4069
G01 X29.1398 Y10.3993
G01 X29.0638 Y10.2968
G01 X29.0583 Y10.2887
G01 X28.9927 Y10.1792
G01 X28.9881 Y10.1706
G01 X28.9336 Y10.0552
G01 X28.9298 Y10.0462
G01 X28.8868 Y9.9261
G01 X28.8840 Y9.9167
G01 X28.8530 Y9.7929
G01 X28.8511 Y9.7833
G01 X28.8323 Y9.6571
G01 X28.8314 Y9.6473
G01 X28.8251 Y9.5199
G01 X28.8250 Y9.4350
G01 X28.8314 Y9.3027
G01 X28.8323 Y9.2929
G01 X28.8511 Y9.1667
G01 X28.8530 Y9.1571
G01 X28.8840 Y9.0333
G01 X28.8868 Y9.0239
G01 X28.9298 Y8.9038
G01 X28.9336 Y8.8948
G01 X28.9881 Y8.7794
G01 X28.9927 Y8.7708
G01 X29.0495 Y8.6761
G01 X29.0495 Y7.4119
G01 X28.9631 Y7.3255
G01 X21.4619 Y7.3255
G01 X21.3755 Y7.4119
G01 X21.3755 Y8.6761
G01 X21.4323 Y8.7708
G01 X21.4369 Y8.7794
G01 X21.4914 Y8.8948
G01 X21.4952 Y8.9038
G01 X21.5382 Y9.0239
G01 X21.5410 Y9.0333
G01 X21.5720 Y9.1571
G01 X21.5739 Y9.1667
G01 X21.5927 Y9.2929
G01 X21.5936 Y9.3027
G01 X21.6000 Y9.4350
G01 X21.5999 Y9.5199
G01 X21.5936 Y9.6473
G01 X21.5927 Y9.6571
G01 X21.5739 Y9.7833
G01 X21.5720 Y9.7929
G01 X21.5410 Y9.9167
G01 X21.5382 Y9.9261
G01 X21.4952 Y10.0462
G01 X21.4914 Y10.0552
G01 X21.4369 Y10.1706
G01 X21.4323 Y10.1792
G01 X21.3667 Y10.2887
G01 X21.3612 Y10.2968
G01 X21.2852 Y10.3993
G01 X21.2790 Y10.4069
G01 X21.1933 Y10.5014
G01 X21.1864 Y10.5083
G01 X21.0919 Y10.5940
G01 X21.0843 Y10.6002
G01 X20.9818 Y10.6762
G01 X20.9737 Y10.6817
G01 X20.8642 Y10.7473
G01 X20.8556 Y10.7519
G01 X20.7402 Y10.8064
G01 X20.7312 Y10.8102
G01 X20.6111 Y10.8532
G01 X20.6017 Y10.8560
G01 X20.4779 Y10.8870
G01 X20.4683 Y10.8889
G01 X20.3421 Y10.9077
G01 X20.3323 Y10.9086
G01 X20.2049 Y10.9149
G01 X20.1951 Y10.9149
G01 X20.0677 Y10.9086
G01 X20.0579 Y10.9077
G01 X19.9317 Y10.8889
G01 X19.9221 Y10.8870
G01 X19.7983 Y10.8560
G01 X19.7889 Y10.8532
G01 X19.6688 Y10.8102
G01 X19.6598 Y10.8064
G01 X19.5444 Y10.7519
G01 X19.5358 Y10.7473
G01 X19.4263 Y10.6817
G01 X19.4182 Y10.6762
G01 X19.3157 Y10.6002
G01 X19.3081 Y10.5940
G01 X19.2136 Y10.5083
G01 X19.2067 Y10.5014
G01 X19.1210 Y10.4069
G01 X19.1148 Y10.3993
G01 X19.0388 Y10.2968
G01 X19.0333 Y10.2887
G01 X18.9677 Y10.1792
G01 X18.9631 Y10.1706
G01 X18.9086 Y10.0552
G01 X18.9048 Y10.0462
G01 X18.8618 Y9.9261
G01 X18.8590 Y9.9167
G01 X18.8280 Y9.7929
G01 X18.8261 Y9.7833
G01 X18.8073 Y9.6571
G01 X18.8064 Y9.6473
G01 X18.8001 Y9.5199
G01 X18.8001 Y9.4301
G01 X18.8064 Y9.3027
G01 X18.8073 Y9.2929
G01 X18.8261 Y9.1667
G01 X18.8280 Y9.1571
G01 X18.8590 Y9.0333
G01 X18.8618 Y9.0239
G01 X18.9048 Y8.9038
G01 X18.9086 Y8.8948
G01 X18.9631 Y8.7794
G01 X18.9677 Y8.7708
G01 X19.0245 Y8.6761
G01 X19.0245 Y7.4119
G01 X18.8381 Y7.2255
G01 X11.7119 Y7.2255
G01 X11.4755 Y7.4619
G01 X11.4755 Y8.1250
G01 X11.6000 Y8.1250
G01 X11.6098 Y8.1255
G01 X11.6195 Y8.1269
G01 X11.6290 Y8.1293
G01 X11.6383 Y8.1326
G01 X11.6471 Y8.1368
G01 X11.6556 Y8.1419
G01 X11.6634 Y8.1477
G01 X11.6707 Y8.1543
G01 X11.6773 Y8.1616
G01 X11.6831 Y8.1694
G01 X11.6882 Y8.1779
G01 X11.6924 Y8.1867
G01 X11.6957 Y8.1960
G01 X11.6981 Y8.2055
G01 X11.6995 Y8.2152
G01 X11.7000 Y8.2250
G01 X11.7000 Y10.8250
G01 X11.6995 Y10.8348
G01 X11.6981 Y10.8445
G01 X11.6957 Y10.8540
G01 X11.6924 Y10.8633
G01 X11.6882 Y10.8721
G01 X11.6831 Y10.8806
G01 X11.6773 Y10.8884
G01 X11.6707 Y10.8957
G01 X11.6634 Y10.9023
G01 X11.6556 Y10.9081
G01 X11.6471 Y10.9132
G01 X11.6383 Y10.9174
G01 X11.6290 Y10.9207
G01 X11.6195 Y10.9231
G01 X11.6098 Y10.9245
G01 X11.6000 Y10.9250
G01 X9.0000 Y10.9250
G01 X8.9902 Y10.9245
G01 X8.9805 Y10.9231
G01 X8.9710 Y10.9207
G01 X8.9617 Y10.9174
G01 X8.9529 Y10.9132
G01 X8.9444 Y10.9081
G01 X8.9366 Y10.9023
G01 X8.9293 Y10.8957
G01 X8.9227 Y10.8884
G01 X8.9169 Y10.8806
G01 X8.9118 Y10.8721
G01 X8.9076 Y10.8633
G01 X8.9043 Y10.8540
G01 X8.9019 Y10.8445
G01 X8.9005 Y10.8348
G01 X8.9000 Y10.8250
G01 X8.9000 Y8.2250
G01 X8.9005 Y8.2152
G01 X8.9019 Y8.2055
G01 X8.9043 Y8.1960
G01 X8.9076 Y8.1867
G01 X8.9118 Y8.1779
G01 X8.9169 Y8.1694
G01 X8.9227 Y8.1616
G01 X8.9293 Y8.1543
G01 X8.9366 Y8.1477
G01 X8.9444 Y8.1419
G01 X8.9529 Y8.1368
G01 X8.9617 Y8.1326
G01 X8.9710 Y8.1293
G01 X8.9805 Y8.1269
G01 X8.9902 Y8.1255
G01 X9.0000 Y8.1250
G00 Z4.0000
G00 X13.9073 Y9.3429
G01 F40.00
G01 Z-0.3000
G01 F40.00
G01 X13.9261 Y9.2167
G01 X13.9280 Y9.2071
G01 X13.9590 Y9.0833
G01 X13.9618 Y9.0739
G01 X14.0048 Y8.9538
G01 X14.0086 Y8.9448
G01 X14.0631 Y8.8294
G01 X14.0677 Y8.8208
G01 X14.1333 Y8.7113
G01 X14.1388 Y8.7032
G01 X14.2148 Y8.6007
G01 X14.2210 Y8.5931
G01 X14.3067 Y8.4986
G01 X14.3136 Y8.4917
G01 X14.4081 Y8.4060
G01 X14.4157 Y8.3998
G01 X14.5182 Y8.3238
G01 X14.5263 Y8.3183
G01 X14.6358 Y8.2527
G01 X14.6444 Y8.2481
G01 X14.7598 Y8.1936
G01 X14.7688 Y8.1898
G01 X14.8889 Y8.1468
G01 X14.8983 Y8.1440
G01 X15.0221 Y8.1130
G01 X15.0317 Y8.1111
G01 X15.1579 Y8.0923
G01 X15.1677 Y8.0914
G01 X15.2951 Y8.0851
G01 X15.3049 Y8.0851
G01 X15.4323 Y8.0914
G01 X15.4421 Y8.0923
G01 X15.5683 Y8.1111
G01 X15.5779 Y8.1130
G01 X15.7017 Y8.1440
G01 X15.7111 Y8.1468
G01 X15.8312 Y8.1898
G01 X15.8402 Y8.1936
G01 X15.9556 Y8.2481
G01 X15.9642 Y8.2527
G01 X16.0737 Y8.3183
G01 X16.0818 Y8.3238
G01 X16.1843 Y8.3998
G01 X16.1919 Y8.4060
G01 X16.2864 Y8.4917
G01 X16.2933 Y8.4986
G01 X16.3790 Y8.5931
G01 X16.3852 Y8.6007
G01 X16.4612 Y8.7032
G01 X16.4667 Y8.7113
G01 X16.5323 Y8.8208
G01 X16.5369 Y8.8294
G01 X16.5914 Y8.9448
G01 X16.5952 Y8.9538
G01 X16.6382 Y9.0739
G01 X16.6410 Y9.0833
G01 X16.6720 Y9.2071
G01 X16.6739 Y9.2167
G01 X16.6927 Y9.3429
G01 X16.6936 Y9.3527
G01 X16.6999 Y9.4801
G01 X16.7000 Y9.5650
G01 X16.6936 Y9.6973
G01 X16.6927 Y9.7071
G01 X16.6739 Y9.8333
G01 X16.6720 Y9.8429
G01 X16.6410 Y9.9667
G01 X16.6382 Y9.9761
G01 X16.5952 Y10.0962
G01 X16.5914 Y10.1052
G01 X16.5369 Y10.2206
G01 X16.5323 Y10.2292
G01 X16.4755 Y10.3239
G01 X16.4755 Y11.2928
G01 X16.4702 Y11.4031
G01 X16.4693 Y11.4129
G01 X16.4538 Y11.5173
G01 X16.4505 Y11.5322
G01 X16.4505 Y17.0881
G01 X18.0869 Y18.7245
G01 X21.3261 Y18.7245
G01 X21.4208 Y18.6677
G01 X21.4294 Y18.6631
G01 X21.5448 Y18.6086
G01 X21.5538 Y18.6048
G01 X21.6739 Y18.5618
G01 X21.6833 Y18.5590
G01 X21.8071 Y18.5280
G01 X21.8167 Y18.5261
G01 X21.9429 Y18.5073
G01 X21.9527 Y18.5064
G01 X22.0850 Y18.5000
G01 X22.1699 Y18.5001
G01 X22.2973 Y18.5064
G01 X22.3071 Y18.5073
G01 X22.4333 Y18.5261
G01 X22.4429 Y18.5280
G01 X22.5667 Y18.5590
G01 X22.5761 Y18.5618
G01 X22.6962 Y18.6048
G01 X22.7052 Y18.6086
G01 X22.8206 Y18.6631
G01 X22.8292 Y18.6677
G01 X22.9387 Y18.7333
G01 X22.9468 Y18.7388
G01 X23.0493 Y18.8148
G01 X23.0569 Y18.8210
G01 X23.1514 Y18.9067
G01 X23.1583 Y18.9136
G01 X23.2440 Y19.0081
G01 X23.2502 Y19.0157
G01 X23.3262 Y19.1182
G01 X23.3317 Y19.1263
G01 X23.3973 Y19.2358
G01 X23.4019 Y19.2444
G01 X23.4564 Y19.3598
G01 X23.4602 Y19.3688
G01 X23.5032 Y19.4889
G01 X23.5060 Y19.4983
G01 X23.5370 Y19.6221
G01 X23.5389 Y19.6317
G01 X23.5424 Y19.6549
G01 X27.6419 Y23.7545
G01 X46.2750 Y23.7545
G01 X46.3853 Y23.7598
G01 X46.3951 Y23.7607
G01 X46.4995 Y23.7762
G01 X46.5166 Y23.7800
G01 X46.6750 Y23.7800
G01 X46.7828 Y23.7852
G01 X46.7926 Y23.7861
G01 X46.8945 Y23.8013
G01 X46.9041 Y23.8032
G01 X47.0041 Y23.8282
G01 X47.0135 Y23.8311
G01 X47.1105 Y23.8658
G01 X47.1196 Y23.8695
G01 X47.2127 Y23.9136
G01 X47.2214 Y23.9182
G01 X47.3098 Y23.9712
G01 X47.3179 Y23.9766
G01 X47.4007 Y24.0380
G01 X47.4083 Y24.0442
